X: 4
T: The Dusty Miller
R: slip jig
M: 9/8
L: 1/8
K: Gmaj
|: B2 d c2 A B2 G | E2 A A2 B cBA | B2 d cBA G2 F | D2 G G2 A B2 G :||: B2 d def g3 | a2 A A2 B cBA | B2 d e2 f gfe | d2 B G2 A B2 G :||: D3 G2 A BAG | E3 A2 B cBA | B2 d cBA G2 F | D2 G G2 A B2 G :|


Tune 28	Setting 12417

